report_00007_2020-12-11T15:55:29.892Z/bootup-time/comparison/line/12_vs_13.svg

<svg width="640" height="500" xmlns="http://www.w3.org/2000/svg" xmlns:xlink="http://www.w3.org/1999/xlink"><path fill="#fff" d="M0 0h640v500H0z"/><defs><path id="d" stroke-width=".222" stroke="currentColor" d="M-1-1h2v2h-2z"/><path id="b" stroke-width=".222" stroke="currentColor" d="M0-1.33l-1.33 2h2.66z"/><path id="f" stroke-width=".222" stroke="currentColor" d="M0 1.33L1.265.411.782-1.067l-1.564-.009-.483 1.487z"/><use xlink:href="#b" id="c" stroke="currentColor" transform="rotate(180)"/><use xlink:href="#d" id="e" stroke="currentColor" transform="rotate(45)"/><circle id="a" stroke-width=".222" stroke="currentColor" cx="0" cy="0" r="1"/></defs><g fill="none" color="#000" stroke="currentColor"><path stroke="#000" d="M45.6 391.6h9m560.4 0h-9"/><text transform="translate(37.3 395.5)" stroke="none" fill="#000" font-family="Arial" font-size="12" text-anchor="end"><tspan>5</tspan></text></g><g fill="none" color="#000" stroke="currentColor"><path stroke="#000" d="M45.6 350h9m560.4 0h-9"/><text transform="translate(37.3 353.9)" stroke="none" fill="#000" font-family="Arial" font-size="12" text-anchor="end"><tspan>10</tspan></text></g><g fill="none" color="#000" stroke="currentColor"><path stroke="#000" d="M45.6 308.5h9m560.4 0h-9"/><text transform="translate(37.3 312.4)" stroke="none" fill="#000" font-family="Arial" font-size="12" text-anchor="end"><tspan>15</tspan></text></g><g fill="none" color="#000" stroke="currentColor"><path stroke="#000" d="M45.6 267h9m560.4 0h-9"/><text transform="translate(37.3 270.9)" stroke="none" fill="#000" font-family="Arial" font-size="12" text-anchor="end"><tspan>20</tspan></text></g><g fill="none" color="#000" stroke="currentColor"><path stroke="#000" d="M45.6 225.4h9m560.4 0h-9"/><text transform="translate(37.3 229.3)" stroke="none" fill="#000" font-family="Arial" font-size="12" text-anchor="end"><tspan>25</tspan></text></g><g fill="none" color="#000" stroke="currentColor"><path stroke="#000" d="M45.6 183.9h9m560.4 0h-9"/><text transform="translate(37.3 187.8)" stroke="none" fill="#000" font-family="Arial" font-size="12" text-anchor="end"><tspan>30</tspan></text></g><g fill="none" color="#000" stroke="currentColor"><path stroke="#000" d="M45.6 142.3h9m560.4 0h-9"/><text transform="translate(37.3 146.2)" stroke="none" fill="#000" font-family="Arial" font-size="12" text-anchor="end"><tspan>35</tspan></text></g><g fill="none" color="#000" stroke="currentColor"><path stroke="#000" d="M45.6 100.8h9m560.4 0h-9"/><text transform="translate(37.3 104.7)" stroke="none" fill="#000" font-family="Arial" font-size="12" text-anchor="end"><tspan>40</tspan></text></g><g fill="none" color="#000" stroke="currentColor"><path stroke="#000" d="M45.6 59.2h9m560.4 0h-9"/><text transform="translate(37.3 63.1)" stroke="none" fill="#000" font-family="Arial" font-size="12" text-anchor="end"><tspan>45</tspan></text></g><g fill="none" color="#000" stroke="currentColor"><path stroke="#000" d="M45.6 392v-9m0-364.9v9"/><text transform="translate(45.6 413.9)" stroke="none" fill="#000" font-family="Arial" font-size="12" text-anchor="middle"><tspan>0</tspan></text></g><g fill="none" color="#000" stroke="currentColor"><path stroke="#000" d="M103.1 392v-9m0-364.9v9"/><text transform="translate(103.1 413.9)" stroke="none" fill="#000" font-family="Arial" font-size="12" text-anchor="middle"><tspan>10</tspan></text></g><g fill="none" color="#000" stroke="currentColor"><path stroke="#000" d="M160.6 392v-9m0-364.9v9"/><text transform="translate(160.6 413.9)" stroke="none" fill="#000" font-family="Arial" font-size="12" text-anchor="middle"><tspan>20</tspan></text></g><g fill="none" color="#000" stroke="currentColor"><path stroke="#000" d="M218.1 392v-9m0-364.9v9"/><text transform="translate(218.1 413.9)" stroke="none" fill="#000" font-family="Arial" font-size="12" text-anchor="middle"><tspan>30</tspan></text></g><g fill="none" color="#000" stroke="currentColor"><path stroke="#000" d="M275.7 392v-9m0-364.9v9"/><text transform="translate(275.7 413.9)" stroke="none" fill="#000" font-family="Arial" font-size="12" text-anchor="middle"><tspan>40</tspan></text></g><g fill="none" color="#000" stroke="currentColor"><path stroke="#000" d="M333.2 392v-9m0-364.9v9"/><text transform="translate(333.2 413.9)" stroke="none" fill="#000" font-family="Arial" font-size="12" text-anchor="middle"><tspan>50</tspan></text></g><g fill="none" color="#000" stroke="currentColor"><path stroke="#000" d="M390.7 392v-9m0-364.9v9"/><text transform="translate(390.7 413.9)" stroke="none" fill="#000" font-family="Arial" font-size="12" text-anchor="middle"><tspan>60</tspan></text></g><g fill="none" color="#000" stroke="currentColor"><path stroke="#000" d="M448.2 392v-9m0-364.9v9"/><text transform="translate(448.2 413.9)" stroke="none" fill="#000" font-family="Arial" font-size="12" text-anchor="middle"><tspan>70</tspan></text></g><g fill="none" color="#000" stroke="currentColor"><path stroke="#000" d="M505.7 392v-9m0-364.9v9"/><text transform="translate(505.7 413.9)" stroke="none" fill="#000" font-family="Arial" font-size="12" text-anchor="middle"><tspan>80</tspan></text></g><g fill="none" color="#000" stroke="currentColor"><path stroke="#000" d="M563.2 392v-9m0-364.9v9"/><text transform="translate(563.2 413.9)" stroke="none" fill="#000" font-family="Arial" font-size="12" text-anchor="middle"><tspan>90</tspan></text></g><path stroke="#000" d="M45.6 18.1V392H615V18.1H45.6z" fill="none" color="#000"/><text transform="translate(525 431.9)" stroke="none" fill="#000" font-family="Arial" font-size="12" text-anchor="end" color="#000"><tspan>pages+cached+noexternal+nofonts+nosvg+noimg+nocss</tspan></text><path stroke="#9400D3" d="M533.3 428h42.2M45.6 289.1l5.8-10.5 5.7 4.7 5.8.6 5.7-4.6 5.8-6.3 5.7 12.6 5.8 1.4 5.7 3.4 5.8-13.2 5.7 2.2 5.8 9.6 5.7-3.9 5.8 15.5 5.7-15.4 5.8-15.2 5.7 18.1 5.8-15 5.7-4.7 5.8 10 5.7-253.1 5.8 258.2 5.7-2.6 5.8.7 5.7 6.3 5.8 3.3 5.7-16.9 5.8 9.2 5.7-9.4 5.8 14.1 5.7-5.1 5.8-.5 5.7-.3 5.8.5 5.8 8.4 5.7-11.1 5.8 7.4 5.7-.6 5.8-2.1 5.7-.6 5.8-3.2 5.7 14.9 5.8-15.6 5.7.2 5.8-1.5 5.7-6.1 5.8 7.8 5.7 10.3 5.8-13.1 5.7 16.1 5.8-12.9 5.7 5.4 5.8-11.4 5.7 1 5.8 1.9 5.7 2.2 5.8 8.8 5.7 1.3 5.8-3.3 5.7-13.7 5.8 25.7 5.7-8.4 5.8-22 5.7 25.3 5.8-4.6 5.7-8.7 5.8 1.3 5.8-6.3 5.7 4 5.8-5.7 5.7-.1 5.8 20.6 5.7-14.1 5.8 9.3 5.7-9.1 5.8 10 5.7-18.1 5.8 12.5 5.7 9.8 5.8-5.8 5.7-3.6 5.8-2.7 5.7-9.9 5.8-1.8 5.7 6.7 5.8 16.1 5.7-8.6 5.8-6.3 5.7-5.8 5.8 3.7 5.7 11.1 5.8-.8 5.7-1.2 5.8-2.4 5.7-3.1 5.8 10.5 5.7-6.7 5.8 10.2 5.7-26.3 5.8 17.6" fill="none" color="#000"/><text transform="translate(525 449.9)" stroke="none" fill="#000" font-family="Arial" font-size="12" text-anchor="end" color="#000"><tspan>pages+cached+noexternal+nofonts+nosvg+noimg+nocss+nojs</tspan></text><path stroke="#009E73" d="M533.3 446h42.2M45.6 368.4l5.8 9.2 5.7-1.4 5.8-3.9 5.7 3 5.8-12.5 5.7 10.7 5.8 3.6 5.7-8.5 5.8 6.4 5.7 1.7 5.8-5.3 5.7 6.4 5.8-2.2 5.7 3.1 5.8-6.6 5.7 9.5 5.8-1.4 5.7-2.9 5.8-2.3 5.7-10.2 5.8 6.9 5.7-12.8 5.8 5.2 5.7 9.9 5.8 4.9 5.7-6.6 5.8 2.7 5.7 2.4 5.8-12.5 5.7 4.8 5.8-.6 5.7 2.5 5.8 5.7h5.8l5.7 1.9 5.8-2.3 5.7-.2 5.8-2 5.7 3.6 5.8.2 5.7-12.8 5.8 5.3 5.7 4.3 5.8 3.1 5.7-10.9 5.8 3.7 5.7.9 5.8 4.7 5.7.7 5.8-2.8 5.7 3.1 5.8 1 5.7-3.8 5.8 1.4 5.7-1.6 5.8 2.9 5.7-9.8 5.8 8.6 5.7 8.3 5.8-14.1 5.7 4.2 5.8.4 5.7 6 5.8-4.7 5.7-4.1 5.8.5 5.8-5.9 5.7 6.1 5.8 4.6 5.7-1.3 5.8-6.9 5.7.8 5.8 5.4 5.7 3 5.8-8.9 5.7 5.6 5.8-5.1 5.7 3.6 5.8-3.6 5.7 3.7 5.8-6.9 5.7 7.9 5.8-4.2 5.7-.8 5.8 2.7 5.7 6.4L546 366l5.7 13.9 5.8-8.9 5.7 9.5 5.8 2.4 5.7-4.2 5.8.4 5.7-7.3 5.8 3 5.7-4.8h5.8l5.7 3.6 5.8-7.6" fill="none" color="#000"/><text transform="translate(525 467.9)" stroke="none" fill="#000" font-family="Arial" font-size="12" text-anchor="end" color="#000"><tspan>score p10=1282</tspan></text><path stroke="#56B4E9" d="M533.3 464h42.2" fill="none" color="#000"/><g><text transform="translate(525 485.9)" stroke="none" fill="#000" font-family="Arial" font-size="12" text-anchor="end" color="#000"><tspan>score median=3500</tspan></text><path stroke="#E69F00" d="M533.3 482h42.2" fill="none" color="#000"/></g><g fill="none" color="#000" stroke="currentColor"><path stroke="#000" d="M45.6 18.1V392H615V18.1H45.6z"/></g></svg>

<?xml version="1.0" encoding="utf-8"  standalone="no"?>
<svg 
 width="640" height="500"
 viewBox="0 0 640 500"
 xmlns="http://www.w3.org/2000/svg"
 xmlns:xlink="http://www.w3.org/1999/xlink"
>

<title>Gnuplot</title>
<desc>Produced by GNUPLOT 5.4 patchlevel 0 </desc>

<g id="gnuplot_canvas">

<rect x="0" y="0" width="640" height="500" fill="#ffffff"/>
<defs>

	<circle id='gpDot' r='0.5' stroke-width='0.5' stroke='currentColor'/>
	<path id='gpPt0' stroke-width='0.222' stroke='currentColor' d='M-1,0 h2 M0,-1 v2'/>
	<path id='gpPt1' stroke-width='0.222' stroke='currentColor' d='M-1,-1 L1,1 M1,-1 L-1,1'/>
	<path id='gpPt2' stroke-width='0.222' stroke='currentColor' d='M-1,0 L1,0 M0,-1 L0,1 M-1,-1 L1,1 M-1,1 L1,-1'/>
	<rect id='gpPt3' stroke-width='0.222' stroke='currentColor' x='-1' y='-1' width='2' height='2'/>
	<rect id='gpPt4' stroke-width='0.222' stroke='currentColor' fill='currentColor' x='-1' y='-1' width='2' height='2'/>
	<circle id='gpPt5' stroke-width='0.222' stroke='currentColor' cx='0' cy='0' r='1'/>
	<use xlink:href='#gpPt5' id='gpPt6' fill='currentColor' stroke='none'/>
	<path id='gpPt7' stroke-width='0.222' stroke='currentColor' d='M0,-1.33 L-1.33,0.67 L1.33,0.67 z'/>
	<use xlink:href='#gpPt7' id='gpPt8' fill='currentColor' stroke='none'/>
	<use xlink:href='#gpPt7' id='gpPt9' stroke='currentColor' transform='rotate(180)'/>
	<use xlink:href='#gpPt9' id='gpPt10' fill='currentColor' stroke='none'/>
	<use xlink:href='#gpPt3' id='gpPt11' stroke='currentColor' transform='rotate(45)'/>
	<use xlink:href='#gpPt11' id='gpPt12' fill='currentColor' stroke='none'/>
	<path id='gpPt13' stroke-width='0.222' stroke='currentColor' d='M0,1.330 L1.265,0.411 L0.782,-1.067 L-0.782,-1.076 L-1.265,0.411 z'/>
	<use xlink:href='#gpPt13' id='gpPt14' fill='currentColor' stroke='none'/>
	<filter id='textbox' filterUnits='objectBoundingBox' x='0' y='0' height='1' width='1'>
	  <feFlood flood-color='#FFFFFF' flood-opacity='1' result='bgnd'/>
	  <feComposite in='SourceGraphic' in2='bgnd' operator='atop'/>
	</filter>
	<filter id='greybox' filterUnits='objectBoundingBox' x='0' y='0' height='1' width='1'>
	  <feFlood flood-color='lightgrey' flood-opacity='1' result='grey'/>
	  <feComposite in='SourceGraphic' in2='grey' operator='atop'/>
	</filter>
</defs>
<g fill="none" color="#FFFFFF" stroke="black" stroke-width="1.00" stroke-linecap="butt" stroke-linejoin="miter">
</g>
<g fill="none" color="black" stroke="currentColor" stroke-width="1.00" stroke-linecap="butt" stroke-linejoin="miter">
	<path stroke='black'  d='M45.6,391.6 L54.6,391.6 M615.0,391.6 L606.0,391.6  '/>	<g transform="translate(37.3,395.5)" stroke="none" fill="black" font-family="Arial" font-size="12.00"  text-anchor="end">
		<text><tspan font-family="Arial" > 5</tspan></text>
	</g>
</g>
<g fill="none" color="black" stroke="currentColor" stroke-width="1.00" stroke-linecap="butt" stroke-linejoin="miter">
	<path stroke='black'  d='M45.6,350.0 L54.6,350.0 M615.0,350.0 L606.0,350.0  '/>	<g transform="translate(37.3,353.9)" stroke="none" fill="black" font-family="Arial" font-size="12.00"  text-anchor="end">
		<text><tspan font-family="Arial" > 10</tspan></text>
	</g>
</g>
<g fill="none" color="black" stroke="currentColor" stroke-width="1.00" stroke-linecap="butt" stroke-linejoin="miter">
	<path stroke='black'  d='M45.6,308.5 L54.6,308.5 M615.0,308.5 L606.0,308.5  '/>	<g transform="translate(37.3,312.4)" stroke="none" fill="black" font-family="Arial" font-size="12.00"  text-anchor="end">
		<text><tspan font-family="Arial" > 15</tspan></text>
	</g>
</g>
<g fill="none" color="black" stroke="currentColor" stroke-width="1.00" stroke-linecap="butt" stroke-linejoin="miter">
	<path stroke='black'  d='M45.6,267.0 L54.6,267.0 M615.0,267.0 L606.0,267.0  '/>	<g transform="translate(37.3,270.9)" stroke="none" fill="black" font-family="Arial" font-size="12.00"  text-anchor="end">
		<text><tspan font-family="Arial" > 20</tspan></text>
	</g>
</g>
<g fill="none" color="black" stroke="currentColor" stroke-width="1.00" stroke-linecap="butt" stroke-linejoin="miter">
	<path stroke='black'  d='M45.6,225.4 L54.6,225.4 M615.0,225.4 L606.0,225.4  '/>	<g transform="translate(37.3,229.3)" stroke="none" fill="black" font-family="Arial" font-size="12.00"  text-anchor="end">
		<text><tspan font-family="Arial" > 25</tspan></text>
	</g>
</g>
<g fill="none" color="black" stroke="currentColor" stroke-width="1.00" stroke-linecap="butt" stroke-linejoin="miter">
	<path stroke='black'  d='M45.6,183.9 L54.6,183.9 M615.0,183.9 L606.0,183.9  '/>	<g transform="translate(37.3,187.8)" stroke="none" fill="black" font-family="Arial" font-size="12.00"  text-anchor="end">
		<text><tspan font-family="Arial" > 30</tspan></text>
	</g>
</g>
<g fill="none" color="black" stroke="currentColor" stroke-width="1.00" stroke-linecap="butt" stroke-linejoin="miter">
	<path stroke='black'  d='M45.6,142.3 L54.6,142.3 M615.0,142.3 L606.0,142.3  '/>	<g transform="translate(37.3,146.2)" stroke="none" fill="black" font-family="Arial" font-size="12.00"  text-anchor="end">
		<text><tspan font-family="Arial" > 35</tspan></text>
	</g>
</g>
<g fill="none" color="black" stroke="currentColor" stroke-width="1.00" stroke-linecap="butt" stroke-linejoin="miter">
	<path stroke='black'  d='M45.6,100.8 L54.6,100.8 M615.0,100.8 L606.0,100.8  '/>	<g transform="translate(37.3,104.7)" stroke="none" fill="black" font-family="Arial" font-size="12.00"  text-anchor="end">
		<text><tspan font-family="Arial" > 40</tspan></text>
	</g>
</g>
<g fill="none" color="black" stroke="currentColor" stroke-width="1.00" stroke-linecap="butt" stroke-linejoin="miter">
	<path stroke='black'  d='M45.6,59.2 L54.6,59.2 M615.0,59.2 L606.0,59.2  '/>	<g transform="translate(37.3,63.1)" stroke="none" fill="black" font-family="Arial" font-size="12.00"  text-anchor="end">
		<text><tspan font-family="Arial" > 45</tspan></text>
	</g>
</g>
<g fill="none" color="black" stroke="currentColor" stroke-width="1.00" stroke-linecap="butt" stroke-linejoin="miter">
	<path stroke='black'  d='M45.6,392.0 L45.6,383.0 M45.6,18.1 L45.6,27.1  '/>	<g transform="translate(45.6,413.9)" stroke="none" fill="black" font-family="Arial" font-size="12.00"  text-anchor="middle">
		<text><tspan font-family="Arial" > 0</tspan></text>
	</g>
</g>
<g fill="none" color="black" stroke="currentColor" stroke-width="1.00" stroke-linecap="butt" stroke-linejoin="miter">
	<path stroke='black'  d='M103.1,392.0 L103.1,383.0 M103.1,18.1 L103.1,27.1  '/>	<g transform="translate(103.1,413.9)" stroke="none" fill="black" font-family="Arial" font-size="12.00"  text-anchor="middle">
		<text><tspan font-family="Arial" > 10</tspan></text>
	</g>
</g>
<g fill="none" color="black" stroke="currentColor" stroke-width="1.00" stroke-linecap="butt" stroke-linejoin="miter">
	<path stroke='black'  d='M160.6,392.0 L160.6,383.0 M160.6,18.1 L160.6,27.1  '/>	<g transform="translate(160.6,413.9)" stroke="none" fill="black" font-family="Arial" font-size="12.00"  text-anchor="middle">
		<text><tspan font-family="Arial" > 20</tspan></text>
	</g>
</g>
<g fill="none" color="black" stroke="currentColor" stroke-width="1.00" stroke-linecap="butt" stroke-linejoin="miter">
	<path stroke='black'  d='M218.1,392.0 L218.1,383.0 M218.1,18.1 L218.1,27.1  '/>	<g transform="translate(218.1,413.9)" stroke="none" fill="black" font-family="Arial" font-size="12.00"  text-anchor="middle">
		<text><tspan font-family="Arial" > 30</tspan></text>
	</g>
</g>
<g fill="none" color="black" stroke="currentColor" stroke-width="1.00" stroke-linecap="butt" stroke-linejoin="miter">
	<path stroke='black'  d='M275.7,392.0 L275.7,383.0 M275.7,18.1 L275.7,27.1  '/>	<g transform="translate(275.7,413.9)" stroke="none" fill="black" font-family="Arial" font-size="12.00"  text-anchor="middle">
		<text><tspan font-family="Arial" > 40</tspan></text>
	</g>
</g>
<g fill="none" color="black" stroke="currentColor" stroke-width="1.00" stroke-linecap="butt" stroke-linejoin="miter">
	<path stroke='black'  d='M333.2,392.0 L333.2,383.0 M333.2,18.1 L333.2,27.1  '/>	<g transform="translate(333.2,413.9)" stroke="none" fill="black" font-family="Arial" font-size="12.00"  text-anchor="middle">
		<text><tspan font-family="Arial" > 50</tspan></text>
	</g>
</g>
<g fill="none" color="black" stroke="currentColor" stroke-width="1.00" stroke-linecap="butt" stroke-linejoin="miter">
	<path stroke='black'  d='M390.7,392.0 L390.7,383.0 M390.7,18.1 L390.7,27.1  '/>	<g transform="translate(390.7,413.9)" stroke="none" fill="black" font-family="Arial" font-size="12.00"  text-anchor="middle">
		<text><tspan font-family="Arial" > 60</tspan></text>
	</g>
</g>
<g fill="none" color="black" stroke="currentColor" stroke-width="1.00" stroke-linecap="butt" stroke-linejoin="miter">
	<path stroke='black'  d='M448.2,392.0 L448.2,383.0 M448.2,18.1 L448.2,27.1  '/>	<g transform="translate(448.2,413.9)" stroke="none" fill="black" font-family="Arial" font-size="12.00"  text-anchor="middle">
		<text><tspan font-family="Arial" > 70</tspan></text>
	</g>
</g>
<g fill="none" color="black" stroke="currentColor" stroke-width="1.00" stroke-linecap="butt" stroke-linejoin="miter">
	<path stroke='black'  d='M505.7,392.0 L505.7,383.0 M505.7,18.1 L505.7,27.1  '/>	<g transform="translate(505.7,413.9)" stroke="none" fill="black" font-family="Arial" font-size="12.00"  text-anchor="middle">
		<text><tspan font-family="Arial" > 80</tspan></text>
	</g>
</g>
<g fill="none" color="black" stroke="currentColor" stroke-width="1.00" stroke-linecap="butt" stroke-linejoin="miter">
	<path stroke='black'  d='M563.2,392.0 L563.2,383.0 M563.2,18.1 L563.2,27.1  '/>	<g transform="translate(563.2,413.9)" stroke="none" fill="black" font-family="Arial" font-size="12.00"  text-anchor="middle">
		<text><tspan font-family="Arial" > 90</tspan></text>
	</g>
</g>
<g fill="none" color="black" stroke="currentColor" stroke-width="1.00" stroke-linecap="butt" stroke-linejoin="miter">
</g>
<g fill="none" color="black" stroke="currentColor" stroke-width="1.00" stroke-linecap="butt" stroke-linejoin="miter">
	<path stroke='black'  d='M45.6,18.1 L45.6,392.0 L615.0,392.0 L615.0,18.1 L45.6,18.1 Z  '/></g>
<g fill="none" color="black" stroke="currentColor" stroke-width="1.00" stroke-linecap="butt" stroke-linejoin="miter">
</g>
	<g id="gnuplot_plot_1" ><title>pages+cached+noexternal+nofonts+nosvg+noimg+nocss</title>
<g fill="none" color="black" stroke="currentColor" stroke-width="1.00" stroke-linecap="butt" stroke-linejoin="miter">
	<g transform="translate(525.0,431.9)" stroke="none" fill="black" font-family="Arial" font-size="12.00"  text-anchor="end">
		<text><tspan font-family="Arial" >pages+cached+noexternal+nofonts+nosvg+noimg+nocss</tspan></text>
	</g>
</g>
<g fill="none" color="black" stroke="currentColor" stroke-width="1.00" stroke-linecap="butt" stroke-linejoin="miter">
	<path stroke='rgb(148,   0, 211)'  d='M533.3,428.0 L575.5,428.0 M45.6,289.1 L51.4,278.6 L57.1,283.3 L62.9,283.9 L68.6,279.3 L74.4,273.0
		L80.1,285.6 L85.9,287.0 L91.6,290.4 L97.4,277.2 L103.1,279.4 L108.9,289.0 L114.6,285.1 L120.4,300.6
		L126.1,285.2 L131.9,270.0 L137.6,288.1 L143.4,273.1 L149.1,268.4 L154.9,278.4 L160.6,25.3 L166.4,283.5
		L172.1,280.9 L177.9,281.6 L183.6,287.9 L189.4,291.2 L195.1,274.3 L200.9,283.5 L206.6,274.1 L212.4,288.2
		L218.1,283.1 L223.9,282.6 L229.6,282.3 L235.4,282.8 L241.2,291.2 L246.9,280.1 L252.7,287.5 L258.4,286.9
		L264.2,284.8 L269.9,284.2 L275.7,281.0 L281.4,295.9 L287.2,280.3 L292.9,280.5 L298.7,279.0 L304.4,272.9
		L310.2,280.7 L315.9,291.0 L321.7,277.9 L327.4,294.0 L333.2,281.1 L338.9,286.5 L344.7,275.1 L350.4,276.1
		L356.2,278.0 L361.9,280.2 L367.7,289.0 L373.4,290.3 L379.2,287.0 L384.9,273.3 L390.7,299.0 L396.4,290.6
		L402.2,268.6 L407.9,293.9 L413.7,289.3 L419.4,280.6 L425.2,281.9 L431.0,275.6 L436.7,279.6 L442.5,273.9
		L448.2,273.8 L454.0,294.4 L459.7,280.3 L465.5,289.6 L471.2,280.5 L477.0,290.5 L482.7,272.4 L488.5,284.9
		L494.2,294.7 L500.0,288.9 L505.7,285.3 L511.5,282.6 L517.2,272.7 L523.0,270.9 L528.7,277.6 L534.5,293.7
		L540.2,285.1 L546.0,278.8 L551.7,273.0 L557.5,276.7 L563.2,287.8 L569.0,287.0 L574.7,285.8 L580.5,283.4
		L586.2,280.3 L592.0,290.8 L597.7,284.1 L603.5,294.3 L609.2,268.0 L615.0,285.6  '/></g>
	</g>
	<g id="gnuplot_plot_2" ><title>pages+cached+noexternal+nofonts+nosvg+noimg+nocss+nojs</title>
<g fill="none" color="black" stroke="currentColor" stroke-width="1.00" stroke-linecap="butt" stroke-linejoin="miter">
	<g transform="translate(525.0,449.9)" stroke="none" fill="black" font-family="Arial" font-size="12.00"  text-anchor="end">
		<text><tspan font-family="Arial" >pages+cached+noexternal+nofonts+nosvg+noimg+nocss+nojs</tspan></text>
	</g>
</g>
<g fill="none" color="black" stroke="currentColor" stroke-width="1.00" stroke-linecap="butt" stroke-linejoin="miter">
	<path stroke='rgb(  0, 158, 115)'  d='M533.3,446.0 L575.5,446.0 M45.6,368.4 L51.4,377.6 L57.1,376.2 L62.9,372.3 L68.6,375.3 L74.4,362.8
		L80.1,373.5 L85.9,377.1 L91.6,368.6 L97.4,375.0 L103.1,376.7 L108.9,371.4 L114.6,377.8 L120.4,375.6
		L126.1,378.7 L131.9,372.1 L137.6,381.6 L143.4,380.2 L149.1,377.3 L154.9,375.0 L160.6,364.8 L166.4,371.7
		L172.1,358.9 L177.9,364.1 L183.6,374.0 L189.4,378.9 L195.1,372.3 L200.9,375.0 L206.6,377.4 L212.4,364.9
		L218.1,369.7 L223.9,369.1 L229.6,371.6 L235.4,377.3 L241.2,377.3 L246.9,379.2 L252.7,376.9 L258.4,376.7
		L264.2,374.7 L269.9,378.3 L275.7,378.5 L281.4,365.7 L287.2,371.0 L292.9,375.3 L298.7,378.4 L304.4,367.5
		L310.2,371.2 L315.9,372.1 L321.7,376.8 L327.4,377.5 L333.2,374.7 L338.9,377.8 L344.7,378.8 L350.4,375.0
		L356.2,376.4 L361.9,374.8 L367.7,377.7 L373.4,367.9 L379.2,376.5 L384.9,384.8 L390.7,370.7 L396.4,374.9
		L402.2,375.3 L407.9,381.3 L413.7,376.6 L419.4,372.5 L425.2,373.0 L431.0,367.1 L436.7,373.2 L442.5,377.8
		L448.2,376.5 L454.0,369.6 L459.7,370.4 L465.5,375.8 L471.2,378.8 L477.0,369.9 L482.7,375.5 L488.5,370.4
		L494.2,374.0 L500.0,370.4 L505.7,374.1 L511.5,367.2 L517.2,375.1 L523.0,370.9 L528.7,370.1 L534.5,372.8
		L540.2,379.2 L546.0,366.0 L551.7,379.9 L557.5,371.0 L563.2,380.5 L569.0,382.9 L574.7,378.7 L580.5,379.1
		L586.2,371.8 L592.0,374.8 L597.7,370.0 L603.5,370.0 L609.2,373.6 L615.0,366.0  '/></g>
	</g>
	<g id="gnuplot_plot_3" ><title>score p10=1282</title>
<g fill="none" color="black" stroke="currentColor" stroke-width="1.00" stroke-linecap="butt" stroke-linejoin="miter">
	<g transform="translate(525.0,467.9)" stroke="none" fill="black" font-family="Arial" font-size="12.00"  text-anchor="end">
		<text><tspan font-family="Arial" >score p10=1282</tspan></text>
	</g>
</g>
<g fill="none" color="black" stroke="currentColor" stroke-width="1.00" stroke-linecap="butt" stroke-linejoin="miter">
	<path stroke='rgb( 86, 180, 233)'  d='M533.3,464.0 L575.5,464.0  '/></g>
	</g>
	<g id="gnuplot_plot_4" ><title>score median=3500</title>
<g fill="none" color="black" stroke="currentColor" stroke-width="1.00" stroke-linecap="butt" stroke-linejoin="miter">
	<g transform="translate(525.0,485.9)" stroke="none" fill="black" font-family="Arial" font-size="12.00"  text-anchor="end">
		<text><tspan font-family="Arial" >score median=3500</tspan></text>
	</g>
</g>
<g fill="none" color="black" stroke="currentColor" stroke-width="1.00" stroke-linecap="butt" stroke-linejoin="miter">
	<path stroke='rgb(230, 159,   0)'  d='M533.3,482.0 L575.5,482.0  '/></g>
	</g>
<g fill="none" color="#FFFFFF" stroke="rgb(230, 159,   0)" stroke-width="2.00" stroke-linecap="butt" stroke-linejoin="miter">
</g>
<g fill="none" color="black" stroke="currentColor" stroke-width="2.00" stroke-linecap="butt" stroke-linejoin="miter">
</g>
<g fill="none" color="black" stroke="black" stroke-width="1.00" stroke-linecap="butt" stroke-linejoin="miter">
</g>
<g fill="none" color="black" stroke="currentColor" stroke-width="1.00" stroke-linecap="butt" stroke-linejoin="miter">
	<path stroke='black'  d='M45.6,18.1 L45.6,392.0 L615.0,392.0 L615.0,18.1 L45.6,18.1 Z  '/></g>
<g fill="none" color="black" stroke="currentColor" stroke-width="1.00" stroke-linecap="butt" stroke-linejoin="miter">
</g>
</g>
</svg>
